packages/vapor/resources/icons/svg/access-secured.svg

<svg enable-background="new 0 0 512 512" height="512" viewBox="0 0 512 512" width="512" xmlns="http://www.w3.org/2000/svg"><path d="m276.029 67.131c.201-.019.298-.028.324-.03-.041.003-.183.017-.324.03z"/><path d="m276.004 67.133c.01-.001.018-.001.025-.002-.008.001-.015.001-.025.002z"/><path d="m275.736 67.158c.039-.004.07-.007.104-.01-.061.006-.104.01-.104.01z"/><path d="m276.354 67.101c.011-.001.011-.001 0 0z"/><path d="m275.842 67.148c.014-.001.026-.002.041-.004-.014.002-.028.003-.041.004z"/><path d="m275.883 67.145c.043-.004.085-.008.121-.011-.043.003-.084.007-.121.011z"/><path d="m283.864 67.091c-.027-.003-.03-.003 0 0z"/><path d="m284.491 67.158c-.017-.001-.025-.003-.04-.004.024.002.04.004.04.004z"/><path d="m284.371 67.146c-.305-.033-.456-.049-.507-.055.077.009.347.037.507.055z"/><path d="m284.451 67.154c-.021-.002-.047-.005-.08-.008.027.002.051.005.08.008z"/><path d="m113.664 140.567c.009-.001.024-.002.03-.003-.01.001-.015.002-.03.003z"/><path d="m113.426 140.591c.08-.008.174-.018.238-.024-.045.005-.126.013-.238.024z"/><path d="m113.272 140.606s.06-.006.134-.013c-.046.005-.075.008-.134.013z"/><path d="m113.406 140.593c.006-.001.013-.001.02-.002-.008.001-.013.001-.02.002z"/><path d="m119.832 140.593c-.006 0-.011-.001-.017-.001.005 0 .011 0 .017.001z"/><path d="m119.551 140.567c-.086-.007-.104-.009 0 0z"/><path d="m119.815 140.591c-.125-.011-.214-.02-.264-.024.071.007.175.016.264.024z"/><path d="m113.694 140.564c.042-.004.053-.005 0 0z"/><path d="m119.982 140.606c-.065-.006-.099-.009-.15-.014.084.009.15.014.15.014z"/><path d="m284.491 67.158c-1.468-.157-7.341-.132-8.755 0-37.904 3.67-59.058 36.383-59.058 36.383s-12.032 14.365-8.677 30.041c4.561 21.232 11.062 39.057 3.25 58.219-3.513 8.65 5.819 27.864 6.134 30.932 1.442 14.338 21.154 21.888 23.304 62.623 1.289 24.42-39.459 43.955-72.311 55.689-12.763-7.941-22.156-17.471-21.606-28.191 1.625-32.164 16.724-38.113 17.825-49.438.209-2.411 7.365-17.589 4.665-24.404-5.977-15.15-.996-29.201 2.49-45.978 2.596-12.372-6.632-23.696-6.632-23.696s-16.146-25.846-45.139-28.729c-1.153-.104-5.662-.104-6.71 0-28.992 2.884-45.191 28.729-45.191 28.729s-9.018 11.298-6.605 23.696c3.276 16.882 8.44 30.827 2.464 45.978-2.674 6.815 4.456 21.993 4.718 24.404 1.075 11.324 16.147 17.273 17.799 49.438 1.651 32.162-86.162 53.604-86.162 53.604v49.542h351.407v-62.754s-34.286-27.156-32.137-67.893c2.147-40.733 21.859-48.285 23.275-62.623.314-3.067 9.646-22.281 6.134-30.932-7.812-19.162-1.311-36.986 3.25-58.219 3.384-15.675-8.648-30.04-8.648-30.04s-21.127-32.711-59.084-36.381z"/><path d="m496.014 337.053s0-36.789 0-49.053c0-15.287-15.731-42.292-47.981-42.292-31.75 0-48.042 25.511-48.042 42.292v49.053h-15.991v110.947h127.501v-110.947zm-63.974-.001-.04-39.03s.131-26.021 16.03-26.021c16.18 0 15.97 26.021 15.97 26.021l.024 39.03z"/></svg>

<?xml version="1.0" encoding="utf-8"?>
<!-- Generator: Adobe Illustrator 16.0.4, SVG Export Plug-In . SVG Version: 6.00 Build 0)  -->
<!DOCTYPE svg PUBLIC "-//W3C//DTD SVG 1.1//EN" "http://www.w3.org/Graphics/SVG/1.1/DTD/svg11.dtd">
<svg version="1.1" id="Layer_1" xmlns="http://www.w3.org/2000/svg" xmlns:xlink="http://www.w3.org/1999/xlink" x="0px" y="0px"
	 width="512px" height="512px" viewBox="0 0 512 512" enable-background="new 0 0 512 512" xml:space="preserve">
<g id="Layer_1_1_" display="none">
	<g display="inline" opacity="0.3">
		<line fill="none" stroke="#B35047" x1="48" y1="0" x2="48" y2="512"/>
		<line fill="none" stroke="#B35047" x1="80" y1="0" x2="80" y2="512"/>
		<line fill="none" stroke="#B35047" x1="112" y1="0" x2="112" y2="512"/>
		<line fill="none" stroke="#B35047" x1="144" y1="0" x2="144" y2="512"/>
		<line fill="none" stroke="#B35047" x1="176" y1="0" x2="176" y2="512"/>
		<line fill="none" stroke="#B35047" x1="208" y1="0" x2="208" y2="512"/>
		<line fill="none" stroke="#B35047" x1="240" y1="0" x2="240" y2="512"/>
		<line fill="none" stroke="#B35047" x1="272" y1="0" x2="272" y2="512"/>
		<line fill="none" stroke="#B35047" x1="304" y1="0" x2="304" y2="512"/>
		<line fill="none" stroke="#B35047" x1="336" y1="0" x2="336" y2="512"/>
		<line fill="none" stroke="#B35047" x1="368" y1="0" x2="368" y2="512"/>
		<line fill="none" stroke="#B35047" x1="400" y1="0" x2="400" y2="512"/>
		<line fill="none" stroke="#B35047" x1="432" y1="0" x2="432" y2="512"/>
		<line fill="none" stroke="#B35047" x1="464" y1="0" x2="464" y2="512"/>
		<line fill="none" stroke="#B35047" x1="496" y1="0" x2="496" y2="512"/>
		<line fill="none" stroke="#B35047" x1="0" y1="48" x2="512" y2="48"/>
		<line fill="none" stroke="#B35047" x1="0" y1="80" x2="512" y2="80"/>
		<line fill="none" stroke="#B35047" x1="0" y1="112" x2="512" y2="112"/>
		<line fill="none" stroke="#B35047" x1="0" y1="144" x2="512" y2="144"/>
		<line fill="none" stroke="#B35047" x1="0" y1="176" x2="512" y2="176"/>
		<line fill="none" stroke="#B35047" x1="0" y1="208" x2="512" y2="208"/>
		<line fill="none" stroke="#B35047" x1="0" y1="240" x2="512" y2="240"/>
		<line fill="none" stroke="#B35047" x1="0" y1="272" x2="512" y2="272"/>
		<line fill="none" stroke="#B35047" x1="0" y1="304" x2="512" y2="304"/>
		<line fill="none" stroke="#B35047" x1="0" y1="337.053" x2="512" y2="337.053"/>
		<line fill="none" stroke="#B35047" x1="0" y1="368" x2="512" y2="368"/>
		<line fill="none" stroke="#B35047" x1="0" y1="400" x2="512" y2="400"/>
		<line fill="none" stroke="#B35047" x1="0" y1="432" x2="512" y2="432"/>
		<line fill="none" stroke="#B35047" x1="0" y1="464" x2="512" y2="464"/>
		<line fill="none" stroke="#B35047" x1="0" y1="496" x2="512" y2="496"/>
		<line fill="none" stroke="#B35047" x1="0" y1="16" x2="512" y2="16"/>
		<line fill="none" stroke="#B35047" x1="16" y1="0" x2="16" y2="512"/>
	</g>
	<g display="inline">
		<line fill="none" stroke="#B35047" x1="32" y1="0" x2="32" y2="512"/>
		<line fill="none" stroke="#B35047" x1="64" y1="0" x2="64" y2="512"/>
		<line fill="none" stroke="#B35047" x1="96" y1="0" x2="96" y2="512"/>
		<line fill="none" stroke="#B35047" x1="128" y1="0" x2="128" y2="512"/>
		<line fill="none" stroke="#B35047" x1="160" y1="0" x2="160" y2="512"/>
		<line fill="none" stroke="#B35047" x1="192" y1="0" x2="192" y2="512"/>
		<line fill="none" stroke="#B35047" x1="224" y1="0" x2="224" y2="512"/>
		<line fill="none" stroke="#B35047" x1="256" y1="0" x2="256" y2="512"/>
		<line fill="none" stroke="#B35047" x1="288" y1="0" x2="288" y2="512"/>
		<line fill="none" stroke="#B35047" x1="320" y1="0" x2="320" y2="512"/>
		<line fill="none" stroke="#B35047" x1="352" y1="0" x2="352" y2="512"/>
		<line fill="none" stroke="#B35047" x1="384" y1="0" x2="384" y2="512"/>
		<line fill="none" stroke="#B35047" x1="416" y1="0" x2="416" y2="512"/>
		<line fill="none" stroke="#B35047" x1="448" y1="0" x2="448" y2="512"/>
		<line fill="none" stroke="#B35047" x1="480" y1="0" x2="480" y2="512"/>
		<line fill="none" stroke="#B35047" x1="0" y1="32" x2="512" y2="32"/>
		<line fill="none" stroke="#B35047" x1="0" y1="64" x2="512" y2="64"/>
		<line fill="none" stroke="#B35047" x1="0" y1="96" x2="512" y2="96"/>
		<line fill="none" stroke="#B35047" x1="0" y1="128" x2="512" y2="128"/>
		<line fill="none" stroke="#B35047" x1="0" y1="160" x2="512" y2="160"/>
		<line fill="none" stroke="#B35047" x1="0" y1="192" x2="512" y2="192"/>
		<line fill="none" stroke="#B35047" x1="0" y1="224" x2="512" y2="224"/>
		<line fill="none" stroke="#B35047" x1="0" y1="256" x2="512" y2="256"/>
		<line fill="none" stroke="#B35047" x1="0" y1="288" x2="512" y2="288"/>
		<line fill="none" stroke="#B35047" x1="0" y1="320" x2="512" y2="320"/>
		<line fill="none" stroke="#B35047" x1="0" y1="352" x2="512" y2="352"/>
		<line fill="none" stroke="#B35047" x1="0" y1="384" x2="512" y2="384"/>
		<line fill="none" stroke="#B35047" x1="0" y1="416" x2="512" y2="416"/>
		<line fill="none" stroke="#B35047" x1="0" y1="448" x2="512" y2="448"/>
		<line fill="none" stroke="#B35047" x1="0" y1="480" x2="512" y2="480"/>
		<rect fill="none" stroke="#B35047" width="512" height="512"/>
	</g>
</g>
<g id="Layer_2">
	<g>
		<path d="M276.029,67.131c0.201-0.019,0.298-0.028,0.324-0.03C276.312,67.104,276.17,67.118,276.029,67.131z"/>
		<path d="M276.004,67.133c0.01-0.001,0.018-0.001,0.025-0.002C276.021,67.132,276.014,67.132,276.004,67.133z"/>
		<path d="M275.736,67.158c0.039-0.004,0.07-0.007,0.104-0.01C275.779,67.154,275.736,67.158,275.736,67.158z"/>
		<path d="M276.354,67.101C276.365,67.1,276.365,67.1,276.354,67.101L276.354,67.101z"/>
		<path d="M275.842,67.148c0.014-0.001,0.026-0.002,0.041-0.004C275.869,67.146,275.855,67.147,275.842,67.148z"/>
		<path d="M275.883,67.145c0.043-0.004,0.085-0.008,0.121-0.011C275.961,67.137,275.92,67.141,275.883,67.145z"/>
		<path d="M283.864,67.091C283.837,67.088,283.834,67.088,283.864,67.091L283.864,67.091z"/>
		<path d="M284.491,67.158c-0.017-0.001-0.025-0.003-0.04-0.004C284.475,67.156,284.491,67.158,284.491,67.158z"/>
		<path d="M284.371,67.146c-0.305-0.033-0.456-0.049-0.507-0.055C283.941,67.1,284.211,67.128,284.371,67.146z"/>
		<path d="M284.451,67.154c-0.021-0.002-0.047-0.005-0.08-0.008C284.398,67.148,284.422,67.151,284.451,67.154z"/>
		<path d="M113.664,140.567c0.009-0.001,0.024-0.002,0.03-0.003C113.684,140.565,113.679,140.566,113.664,140.567z"/>
		<path d="M113.426,140.591c0.08-0.008,0.174-0.018,0.238-0.024C113.619,140.572,113.538,140.58,113.426,140.591z"/>
		<path d="M113.272,140.606c0,0,0.06-0.006,0.134-0.013C113.36,140.598,113.331,140.601,113.272,140.606z"/>
		<path d="M113.406,140.593c0.006-0.001,0.013-0.001,0.02-0.002C113.418,140.592,113.413,140.592,113.406,140.593z"/>
		<path d="M119.832,140.593c-0.006,0-0.011-0.001-0.017-0.001C119.82,140.592,119.826,140.592,119.832,140.593z"/>
		<path d="M119.551,140.567C119.465,140.56,119.447,140.558,119.551,140.567L119.551,140.567z"/>
		<path d="M119.815,140.591c-0.125-0.011-0.214-0.02-0.264-0.024C119.622,140.574,119.726,140.583,119.815,140.591z"/>
		<path d="M113.694,140.564C113.736,140.56,113.747,140.559,113.694,140.564L113.694,140.564z"/>
		<path d="M119.982,140.606c-0.065-0.006-0.099-0.009-0.15-0.014C119.916,140.601,119.982,140.606,119.982,140.606z"/>
	</g>
	<g>
		<path d="M284.491,67.158c-1.468-0.157-7.341-0.132-8.755,0c-37.904,3.67-59.058,36.383-59.058,36.383s-12.032,14.365-8.677,30.041
			c4.561,21.232,11.062,39.057,3.25,58.219c-3.513,8.65,5.819,27.864,6.134,30.932c1.442,14.338,21.154,21.888,23.304,62.623
			c1.289,24.42-39.459,43.955-72.311,55.689c-12.763-7.941-22.156-17.471-21.606-28.191c1.625-32.164,16.724-38.113,17.825-49.438
			c0.209-2.411,7.365-17.589,4.665-24.404c-5.977-15.15-0.996-29.201,2.49-45.978c2.596-12.372-6.632-23.696-6.632-23.696
			s-16.146-25.846-45.139-28.729c-1.153-0.104-5.662-0.104-6.71,0c-28.992,2.884-45.191,28.729-45.191,28.729
			s-9.018,11.298-6.605,23.696c3.276,16.882,8.44,30.827,2.464,45.978c-2.674,6.815,4.456,21.993,4.718,24.404
			c1.075,11.324,16.147,17.273,17.799,49.438c1.651,32.162-86.162,53.604-86.162,53.604V416h351.407v-62.754
			c0,0-34.286-27.156-32.137-67.893c2.147-40.733,21.859-48.285,23.275-62.623c0.314-3.067,9.646-22.281,6.134-30.932
			c-7.812-19.162-1.311-36.986,3.25-58.219c3.384-15.675-8.648-30.04-8.648-30.04S322.448,70.828,284.491,67.158z"/>
		<path d="M496.014,337.053c0,0,0-36.789,0-49.053c0-15.287-15.731-42.292-47.981-42.292c-31.75,0-48.042,25.511-48.042,42.292
			c0,12.264,0,49.053,0,49.053H384V448h127.501V337.053H496.014z M432.04,337.052l-0.04-39.03c0,0,0.131-26.021,16.03-26.021
			c16.18,0,15.97,26.021,15.97,26.021l0.024,39.03H432.04z"/>
	</g>
</g>
</svg>
